X:160
T:Alice Gray. RHu.156
S:R.Hughes MS,1823,Whitchurch,Shrops.
A:Whitchurch, Shropshire
Z:Tony Weatherall 2006
N:I have altered the beaming slightly for readability.
M:2/4
L:1/8
Q:1/4=100
R:Air
K:D
F/G/|A>F d>B|A>F FF|Ee/d/ c/B/A/G/|G2FA/F/|!
D>E F>G|Ad2d|c<B A^G|A2zA|!
e>c A>G|G>G A>c|d>F E>D|D2C A/4G/4E/|!
E>E F>G|A<A zG/F/|Ee/d/ c/B/A/G/|G2F A/A/|!
Bz/B/ c>c|d<f dd|e>d e>f|d2z2|]

